src/app/components/elements/ContactForm/icons/email.svg

<svg width="21" height="21" viewBox="0 0 21 21">
<path fill-rule="evenodd" clip-rule="evenodd" d="M4.375 3.5C2.92542 3.5 1.75028 4.67497 1.75 6.12448C1.75 6.12466 1.75 6.12483 1.75 6.125V14.875C1.75 16.3247 2.92525 17.5 4.375 17.5H16.625C18.0747 17.5 19.25 16.3247 19.25 14.875V6.14241C19.2503 6.12882 19.2502 6.11522 19.2499 6.1016C19.2373 4.66263 18.0669 3.5 16.625 3.5H4.375ZM17.4019 5.72215C17.2562 5.44162 16.963 5.25 16.625 5.25H4.375C4.03706 5.25 3.74387 5.44158 3.5981 5.72205L10.5001 10.3234L17.4019 5.72215ZM3.5 7.75989V14.875C3.5 15.3582 3.89175 15.75 4.375 15.75H16.625C17.1082 15.75 17.5 15.3582 17.5 14.875V7.76002L10.9855 12.103C10.6915 12.299 10.3086 12.299 10.0147 12.103L3.5 7.75989Z"/>
</svg>

<svg viewBox="0 0 21 21"><path fill-rule="evenodd" clip-rule="evenodd" d="M4.375 3.5A2.625 2.625 0 0 0 1.75 6.124v8.751A2.625 2.625 0 0 0 4.375 17.5h12.25a2.625 2.625 0 0 0 2.625-2.625V6.102A2.625 2.625 0 0 0 16.625 3.5H4.375Zm13.027 2.222a.875.875 0 0 0-.777-.472H4.375a.875.875 0 0 0-.777.472l6.902 4.601 6.902-4.6ZM3.5 7.76v7.115c0 .483.392.875.875.875h12.25a.875.875 0 0 0 .875-.875V7.76l-6.514 4.343a.875.875 0 0 1-.971 0L3.5 7.76Z"/></svg>
